packages/twenty-docs/static/img/logo-square-dark.svg

<svg fill="none" height="136" viewBox="0 0 136 136" width="136" xmlns="http://www.w3.org/2000/svg" xmlns:xlink="http://www.w3.org/1999/xlink"><clipPath id="a"><rect height="136" rx="16" width="136"/></clipPath><g clip-path="url(#a)"><path d="m136 .00002289h-136l.00014448 135.99997711h135.99985552zm-108.73 50.64007711c0-7.43 6.03-13.46 13.46-13.46h25.91c.38 0 .73.23.89.58s.09.76-.17 1.05l-5.68 6.17c-.99 1.07-2.38 1.69-3.84 1.69h-17.04c-2.23 0-4.04 1.81-4.04 4.04v10.18c0 1.31-1.06 2.37-2.37 2.37h-4.74c-1.31 0-2.37-1.06-2.37-2.37v-10.25zm80.61 34.72c0 7.43-6.03 13.4599-13.46 13.4599h-11.01c-7.43 0-13.46-6.0299-13.46-13.4599v-19.27c0-1.31.49-2.57 1.38-3.54l6.42-6.97c.27-.29.69-.39 1.07-.25.37.15.62.4999.62.8999v29.0701c0 2.23 1.81 4.04 4.04 4.04h10.88c2.23 0 4.04-1.81 4.04-4.04v-34.59c0-2.23-1.81-4.04-4.04-4.04h-12.65c-1.45 0-2.83.61-3.82 1.67l-37.73 41h22.67c1.31 0 2.37 1.06 2.37 2.37v4.74c0 1.31-1.06 2.3699-2.37 2.3699h-30.55c-2.77 0-5.02-2.2499-5.02-5.0199v-2.5101c0-1.26.47-2.4699 1.33-3.3999l42.3-45.95c2.8-3.04 6.73-4.76 10.86-4.76h12.66c7.43 0 13.46 6.03 13.46 13.46v34.72z" fill="#000"/><g fill="#fff"><path d="m27.27 50.6401c0-7.43 6.03-13.46 13.46-13.46h25.91c.38 0 .73.23.89.58s.09.76-.17 1.05l-5.68 6.17c-.99 1.07-2.38 1.69-3.84 1.69h-17.04c-2.23 0-4.04 1.81-4.04 4.04v10.18c0 1.31-1.06 2.37-2.37 2.37h-4.74c-1.31 0-2.37-1.06-2.37-2.37v-10.25z"/><path d="m107.88 85.3601c0 7.43-6.03 13.4599-13.46 13.4599h-11.01c-7.43 0-13.46-6.0299-13.46-13.4599v-19.27c0-1.31.49-2.57 1.38-3.54l6.42-6.97c.27-.29.69-.39 1.07-.25.37.15.62.4999.62.8999v29.0701c0 2.23 1.81 4.04 4.04 4.04h10.88c2.23 0 4.04-1.81 4.04-4.04v-34.59c0-2.23-1.81-4.04-4.04-4.04h-12.65c-1.45 0-2.83.61-3.82 1.67l-37.73 41h22.67c1.31 0 2.37 1.06 2.37 2.37v4.74c0 1.31-1.06 2.3699-2.37 2.3699h-30.55c-2.77 0-5.02-2.2499-5.02-5.0199v-2.5101c0-1.26.47-2.4699 1.33-3.3999l42.3-45.95c2.8-3.04 6.73-4.76 10.86-4.76h12.66c7.43 0 13.46 6.03 13.46 13.46v34.72z"/></g></g></svg>

<svg width="136" height="136" viewBox="0 0 136 136" fill="none" xmlns="http://www.w3.org/2000/svg">
<g clip-path="url(#clip0_2343_96406)">
<path d="M136 2.28882e-05H0L0.000144482 136H136V2.28882e-05ZM27.27 50.6401C27.27 43.2101 33.3 37.1801 40.73 37.1801H66.64C67.02 37.1801 67.37 37.4101 67.53 37.7601C67.69 38.1101 67.62 38.5201 67.36 38.8101L61.68 44.9801C60.69 46.0501 59.3 46.6701 57.84 46.6701H40.8C38.57 46.6701 36.76 48.4801 36.76 50.7101V60.8901C36.76 62.2001 35.7 63.2601 34.39 63.2601H29.65C28.34 63.2601 27.28 62.2001 27.28 60.8901V50.6401H27.27ZM107.88 85.3601C107.88 92.7901 101.85 98.82 94.42 98.82H83.41C75.98 98.82 69.95 92.7901 69.95 85.3601V66.0901C69.95 64.7801 70.44 63.5201 71.33 62.5501L77.75 55.5801C78.02 55.2901 78.44 55.1901 78.82 55.3301C79.19 55.4801 79.44 55.83 79.44 56.23V85.3001C79.44 87.5301 81.25 89.3401 83.48 89.3401H94.36C96.59 89.3401 98.4 87.5301 98.4 85.3001V50.7101C98.4 48.4801 96.59 46.6701 94.36 46.6701H81.71C80.26 46.6701 78.88 47.2801 77.89 48.3401L40.16 89.3401H62.83C64.14 89.3401 65.2 90.4001 65.2 91.7101V96.4501C65.2 97.7601 64.14 98.82 62.83 98.82H32.28C29.51 98.82 27.26 96.5701 27.26 93.8001V91.29C27.26 90.03 27.73 88.8201 28.59 87.8901L70.89 41.9401C73.69 38.9001 77.62 37.1801 81.75 37.1801H94.41C101.84 37.1801 107.87 43.2101 107.87 50.6401V85.3601H107.88Z" fill="black"/>
<path d="M27.27 50.6401C27.27 43.2101 33.3 37.1801 40.73 37.1801H66.64C67.02 37.1801 67.37 37.4101 67.53 37.7601C67.69 38.1101 67.62 38.5201 67.36 38.8101L61.68 44.9801C60.69 46.0501 59.3 46.6701 57.84 46.6701H40.8C38.57 46.6701 36.76 48.4801 36.76 50.7101V60.8901C36.76 62.2001 35.7 63.2601 34.39 63.2601H29.65C28.34 63.2601 27.28 62.2001 27.28 60.8901V50.6401H27.27Z" fill="white"/>
<path d="M107.88 85.3601C107.88 92.7901 101.85 98.82 94.42 98.82H83.41C75.98 98.82 69.95 92.7901 69.95 85.3601V66.0901C69.95 64.7801 70.44 63.5201 71.33 62.5501L77.75 55.5801C78.02 55.2901 78.44 55.1901 78.82 55.3301C79.19 55.4801 79.44 55.83 79.44 56.23V85.3001C79.44 87.5301 81.25 89.3401 83.48 89.3401H94.36C96.59 89.3401 98.4 87.5301 98.4 85.3001V50.7101C98.4 48.4801 96.59 46.6701 94.36 46.6701H81.71C80.26 46.6701 78.88 47.2801 77.89 48.3401L40.16 89.3401H62.83C64.14 89.3401 65.2 90.4001 65.2 91.7101V96.4501C65.2 97.7601 64.14 98.82 62.83 98.82H32.28C29.51 98.82 27.26 96.5701 27.26 93.8001V91.29C27.26 90.03 27.73 88.8201 28.59 87.8901L70.89 41.9401C73.69 38.9001 77.62 37.1801 81.75 37.1801H94.41C101.84 37.1801 107.87 43.2101 107.87 50.6401V85.3601H107.88Z" fill="white"/>
</g>
<defs>
<clipPath id="clip0_2343_96406">
<rect width="136" height="136" rx="16" fill="white"/>
</clipPath>
</defs>
</svg>
